dist/uploads/amazon.svg

<svg width="42" height="26" viewBox="0 0 42 26" fill="none" xmlns="http://www.w3.org/2000/svg">
<path d="M38.061 0.517212H2.97323C1.61674 0.517212 0.51709 1.51551 0.51709 2.74696V23.1333C0.51709 24.3647 1.61674 25.363 2.97323 25.363H38.061C39.4174 25.363 40.5171 24.3647 40.5171 23.1333V2.74696C40.5171 1.51551 39.4174 0.517212 38.061 0.517212Z" fill="white" stroke="#F3F3F3" stroke-width="1.03448"/>
<path fill-rule="evenodd" clip-rule="evenodd" d="M22.999 13.9218H22.32C22.2529 13.9185 22.2002 13.8677 22.1993 13.8056V10.5662C22.2065 10.5047 22.2634 10.4586 22.3302 10.4601H22.9622C23.0197 10.4618 23.069 10.4988 23.0828 10.5506V11.046H23.096C23.2866 10.6031 23.5538 10.392 24.0242 10.392C24.3293 10.392 24.6272 10.4942 24.8195 10.7735C24.9974 11.0326 24.9974 11.4688 24.9974 11.7821V13.8201C24.9875 13.8796 24.9315 13.923 24.8666 13.9218H24.1816C24.1201 13.9194 24.0693 13.8765 24.0609 13.8201V12.0614C24.0609 12.0338 24.0612 12.0053 24.0615 11.9761C24.0647 11.6298 24.0689 11.189 23.6345 11.189C23.4597 11.1964 23.3056 11.2977 23.2402 11.4481C23.1449 11.6458 23.1322 11.8436 23.1322 12.0625V13.8056C23.1296 13.8714 23.07 13.923 22.999 13.9218ZM20.1225 10.3964C21.1338 10.3964 21.6807 11.2007 21.6807 12.2228C21.6807 13.2108 21.0777 13.9944 20.1225 13.9944C19.1305 13.9944 18.5901 13.1901 18.5901 12.1887C18.5901 11.1873 19.1371 10.3964 20.1225 10.3964ZM20.1291 11.0577C19.6268 11.0577 19.5948 11.6911 19.5948 12.0865V12.0996C19.5947 12.5003 19.5946 13.3264 20.1225 13.3264C20.6562 13.3264 20.676 12.645 20.676 12.2295C20.676 11.9569 20.6634 11.6297 20.5741 11.371C20.4976 11.1476 20.345 11.0577 20.1291 11.0577ZM7.53335 13.9285H6.85251C6.78936 13.9255 6.73809 13.8801 6.73191 13.8218V10.5824C6.7342 10.5175 6.79204 10.4661 6.86216 10.4668H7.49714C7.5622 10.4702 7.6142 10.5183 7.61778 10.5785V11.0013H7.63041C7.79567 10.5919 8.10746 10.4015 8.52718 10.4015C8.9469 10.4015 9.22009 10.5919 9.41125 11.0013C9.53883 10.6862 9.84002 10.4594 10.199 10.4079C10.5581 10.3564 10.9192 10.4882 11.1437 10.7527C11.329 10.986 11.323 11.3108 11.3175 11.6159C11.3166 11.6673 11.3156 11.7184 11.3156 11.7681V13.8117C11.315 13.8434 11.3008 13.8735 11.2761 13.8955C11.2514 13.9173 11.2183 13.9292 11.1842 13.9285H10.5033C10.4364 13.9253 10.3836 13.8744 10.3827 13.8123V12.0954C10.3827 12.0694 10.3832 12.0359 10.3837 11.9979C10.3859 11.8367 10.3893 11.5937 10.3635 11.4889C10.3128 11.271 10.1602 11.2096 9.96304 11.2096C9.78227 11.2148 9.6222 11.3191 9.55595 11.4749C9.49097 11.6274 9.49153 11.8728 9.49195 12.0547L9.49202 12.0954V13.8117C9.49139 13.8433 9.47729 13.8733 9.45272 13.8952C9.42816 13.9171 9.39525 13.9291 9.36114 13.9285H8.67855C8.61167 13.925 8.55904 13.8743 8.55792 13.8123V12.0954C8.55792 12.0603 8.55848 12.0235 8.55911 11.9857C8.56451 11.6355 8.57125 11.2018 8.13581 11.2018C7.66472 11.2018 7.66514 11.6954 7.66542 12.0686V12.0954V13.8117C7.66479 13.8434 7.65055 13.8735 7.62585 13.8955C7.60121 13.9173 7.56746 13.9292 7.53335 13.9285ZM5.50653 13.9682C5.55825 13.9951 5.6227 13.9891 5.66754 13.9531L5.67296 13.9542C5.80865 13.8419 6.0559 13.6431 6.1952 13.5353C6.24827 13.4934 6.23862 13.4236 6.1952 13.3677C6.18195 13.3508 6.16862 13.3343 6.15537 13.3178C6.04372 13.1793 5.9377 13.0475 5.9377 12.783V11.8006C5.9377 11.769 5.93787 11.7377 5.93804 11.7066V11.7059C5.94011 11.3265 5.942 10.9794 5.63618 10.7143C5.37566 10.4819 4.94268 10.4003 4.611 10.4003C3.96274 10.4003 3.23909 10.6243 3.08772 11.366C3.08145 11.3961 3.08873 11.4272 3.10787 11.452C3.12702 11.4769 3.15635 11.4935 3.18903 11.4978L3.84394 11.5643C3.9079 11.5553 3.95736 11.5076 3.96455 11.4481C4.02123 11.1929 4.2528 11.0694 4.51271 11.0694C4.65383 11.0694 4.81182 11.1169 4.89504 11.2331C4.98045 11.3497 4.97912 11.5045 4.97793 11.6436C4.97779 11.6597 4.97766 11.6755 4.97766 11.6911V11.7726C4.91573 11.7791 4.85082 11.7853 4.78397 11.7916C4.4244 11.8255 4.0085 11.8648 3.69679 11.9916C3.27467 12.1625 2.97314 12.5104 2.97314 13.0226C2.97314 13.6783 3.4194 14.0061 3.99289 14.0061C4.47713 14.0061 4.74187 13.9006 5.11636 13.5475C5.13441 13.572 5.1507 13.5944 5.16606 13.6157C5.2554 13.7391 5.31357 13.8194 5.50653 13.9682ZM4.9807 12.4455L4.98067 12.4149V12.2792C4.48799 12.2792 3.96756 12.377 3.96756 12.9142C3.96756 13.1879 4.12013 13.3722 4.38125 13.3722C4.57302 13.3722 4.74488 13.2627 4.85343 13.0851C4.98114 12.8748 4.98093 12.6778 4.9807 12.4455ZM15.1238 13.3655C15.1105 13.3486 15.0972 13.332 15.084 13.3155C14.9723 13.1769 14.8663 13.0453 14.8663 12.7813V11.7983C14.8663 11.7647 14.8665 11.7314 14.8668 11.6982C14.8691 11.3208 14.8713 10.9758 14.5648 10.712C14.3037 10.4796 13.8707 10.3981 13.5397 10.3981C12.8914 10.3981 12.1677 10.6215 12.0157 11.3638C12.0093 11.394 12.0166 11.4253 12.0359 11.4503C12.0552 11.4754 12.0847 11.492 12.1177 11.4962L12.778 11.562C12.8418 11.5529 12.8913 11.5053 12.8986 11.4459C12.9559 11.1906 13.1863 11.0672 13.4462 11.0672C13.5867 11.0672 13.7477 11.1152 13.8285 11.2314C13.9145 11.3476 13.9132 11.5025 13.912 11.6416C13.9119 11.6576 13.9117 11.6734 13.9117 11.6889V11.7687C13.851 11.775 13.7875 11.7809 13.7221 11.787C13.3615 11.8208 12.9432 11.8599 12.6308 11.9871C12.2039 12.158 11.9042 12.5059 11.9042 13.0187C11.9042 13.6738 12.3505 14.0017 12.924 14.0017C13.4064 14.0017 13.6729 13.8961 14.0468 13.5431C14.0645 13.567 14.0805 13.589 14.0955 13.6098C14.1861 13.7348 14.2438 13.8143 14.4376 13.9637C14.4893 13.9905 14.5535 13.9847 14.5986 13.9492C14.7343 13.8375 14.9815 13.638 15.1208 13.5303C15.1793 13.4917 15.1696 13.4236 15.1238 13.3655ZM13.7851 13.0823C13.6771 13.2594 13.5047 13.3689 13.3135 13.3689C13.0524 13.3689 12.8998 13.1845 12.8998 12.9114C12.8998 12.3736 13.4202 12.2764 13.9129 12.2764V12.4127V12.4377C13.9131 12.6729 13.9132 12.8708 13.7851 13.0823ZM15.7004 11.0326V10.5713C15.6988 10.5397 15.7117 10.509 15.736 10.4867C15.7602 10.4644 15.7935 10.4528 15.8276 10.4545H18.0667C18.1007 10.4535 18.1338 10.4653 18.1581 10.4874C18.1825 10.5094 18.1961 10.5397 18.1957 10.5713V10.9684C18.1957 11.0348 18.1355 11.1219 18.0275 11.2593L16.8673 12.793C17.2978 12.7836 17.7531 12.8433 18.1444 13.0472C18.2167 13.0828 18.2628 13.1517 18.2651 13.2276V13.7235C18.2651 13.7917 18.1849 13.8704 18.0999 13.8296C17.3571 13.4761 16.4755 13.4775 15.7341 13.8335C15.6563 13.8721 15.5749 13.7945 15.5749 13.7263V13.2544C15.5678 13.1431 15.5968 13.0324 15.6581 12.9365L17.0023 11.1493H15.83C15.7959 11.1505 15.7627 11.1388 15.7381 11.1167C15.7136 11.0946 15.7 11.0642 15.7004 11.0326ZM27.535 10.8662C27.7062 10.7264 27.9018 10.6145 28.1134 10.5355C28.3133 10.4617 28.5265 10.4238 28.7417 10.4238C28.9557 10.4201 29.1678 10.4598 29.3635 10.54C29.5478 10.6182 29.7093 10.7362 29.8345 10.884C29.9707 11.0478 30.0715 11.2344 30.1311 11.4336C30.2035 11.6697 30.2384 11.9143 30.2349 12.1597C30.2381 12.4103 30.2007 12.6599 30.1239 12.9003C30.0596 13.1042 29.9542 13.295 29.8134 13.4627C29.6825 13.6152 29.5164 13.7385 29.3273 13.8235C29.1286 13.9089 28.9113 13.9511 28.6923 13.9469C28.2829 13.9532 27.8866 13.8132 27.5857 13.556V15.1064C27.5915 15.1429 27.5783 15.1797 27.5501 15.2058C27.522 15.2318 27.4822 15.2441 27.4428 15.2388H27.0207C26.9813 15.2441 26.9415 15.2318 26.9134 15.2058C26.8851 15.1797 26.872 15.1429 26.8777 15.1064V10.6545C26.8722 10.618 26.8855 10.5813 26.9136 10.5553C26.9417 10.5293 26.9814 10.517 27.0207 10.5221H27.3348C27.3758 10.5186 27.4167 10.5307 27.4477 10.5557C27.4788 10.5807 27.4975 10.6164 27.4995 10.6545L27.535 10.8662ZM28.5421 10.9522C28.1959 10.9547 27.86 11.0615 27.5851 11.2566V13.0997C27.8898 13.3119 28.204 13.4178 28.5277 13.4174C29.1846 13.4174 29.513 13.0078 29.513 12.1887C29.513 11.3696 29.1894 10.9577 28.5421 10.9522ZM31.1268 11.1152L31.1804 11.0985C31.5201 11.0016 31.8731 10.9508 32.2285 10.9477C32.5143 10.948 32.7144 10.9967 32.8286 11.0935C32.9428 11.1902 32.9998 11.3578 32.9998 11.5961V12.0306C32.7057 11.9607 32.4037 11.9233 32.1001 11.9189C31.6811 11.9186 31.3479 12.0145 31.1002 12.2066C30.8526 12.3987 30.7288 12.6556 30.7288 12.9773C30.7296 13.2771 30.8301 13.5163 31.0303 13.695C31.2305 13.8737 31.5018 13.9631 31.8444 13.9631C32.0562 13.9623 32.2659 13.9244 32.4625 13.8514C32.6698 13.7764 32.8618 13.6691 33.03 13.5342L33.0661 13.7525C33.068 13.7889 33.0858 13.8228 33.1154 13.8466C33.1451 13.8704 33.184 13.8818 33.223 13.8782H33.5305C33.5698 13.8833 33.6094 13.871 33.6376 13.845C33.6656 13.819 33.6789 13.7823 33.6734 13.7458V11.4861C33.673 11.1242 33.5656 10.8574 33.3514 10.6858C33.1371 10.5141 32.8038 10.4283 32.3515 10.4283C32.1265 10.4283 31.9018 10.447 31.6804 10.4841C31.487 10.5127 31.2978 10.5617 31.1165 10.6299C31.0727 10.6437 31.0334 10.6677 31.0025 10.6997C30.9791 10.739 30.969 10.784 30.9736 10.8287V11.0058C30.9736 11.0856 31.0061 11.1253 31.0665 11.1253C31.087 11.125 31.1074 11.1216 31.1268 11.1152ZM32.5089 13.3823C32.3513 13.4368 32.1846 13.4657 32.0162 13.4677C31.8305 13.4681 31.6876 13.423 31.5875 13.3326C31.4874 13.2421 31.4374 13.113 31.4374 12.9455C31.4369 12.5616 31.7061 12.3697 32.2448 12.3697C32.3724 12.3699 32.5 12.3777 32.6265 12.3931C32.7527 12.4079 32.8778 12.4287 33.0016 12.4557V13.131C32.852 13.2372 32.6859 13.322 32.5089 13.3823ZM35.5507 15.1193C35.7195 14.9867 35.8685 14.7683 35.9976 14.4641L37.5691 10.76C37.595 10.7099 37.6119 10.6561 37.6191 10.6008C37.6191 10.5483 37.5859 10.5216 37.519 10.5216H37.1192C37.0643 10.5167 37.0091 10.5282 36.9618 10.5545C36.9215 10.5962 36.8923 10.6461 36.8768 10.7002L35.9119 13.2667L34.9115 10.7002C34.8959 10.6461 34.8668 10.5962 34.8264 10.5545C34.7791 10.5282 34.724 10.5167 34.669 10.5216H34.2403C34.1739 10.5216 34.1408 10.5483 34.1408 10.6008C34.1477 10.6561 34.1644 10.7099 34.1902 10.76L35.5663 13.9106L35.4307 14.2457C35.3498 14.4576 35.2594 14.6032 35.1593 14.6825C35.0388 14.768 34.8888 14.8103 34.7372 14.8014C34.6727 14.8027 34.6083 14.7982 34.5448 14.788C34.5095 14.781 34.4736 14.7767 34.4375 14.7752C34.3657 14.7752 34.3301 14.8171 34.3301 14.9009V15.0729C34.3261 15.1203 34.3386 15.1676 34.3657 15.208C34.3954 15.2401 34.4357 15.2623 34.4803 15.2712C34.6131 15.3036 34.75 15.3192 34.8873 15.3175C35.1607 15.3179 35.3818 15.2518 35.5507 15.1193Z" fill="#232F3E"/>
<path fill-rule="evenodd" clip-rule="evenodd" d="M16.8205 15.9882C16.9755 15.6311 17.3204 14.831 17.1564 14.6371H17.1576C16.9943 14.4428 16.0777 14.5448 15.6654 14.5906L15.6645 14.5908C15.5391 14.6047 15.5198 14.5036 15.6325 14.4304C16.3646 13.9538 17.5641 14.0901 17.7033 14.2511C17.8426 14.412 17.6654 15.5261 16.9797 16.058C16.8742 16.1395 16.7735 16.0959 16.8205 15.9882ZM11.8942 16.539C13.4887 16.539 15.3455 16.0725 16.6245 15.1981V15.1998C16.8362 15.0523 16.6546 14.8355 16.4388 14.9204C15.0426 15.466 13.544 15.7508 12.0288 15.7585C9.92651 15.7585 7.8931 15.2244 6.24797 14.3376C6.10385 14.26 5.9965 14.3968 6.11711 14.4969C7.70089 15.8208 9.76117 16.5491 11.8942 16.539Z" fill="#FF9900"/>
</svg>

<svg width="42" height="26" fill="none" xmlns="http://www.w3.org/2000/svg"><path d="M38.061.517H2.973c-1.356 0-2.456.999-2.456 2.23v20.386c0 1.232 1.1 2.23 2.456 2.23h35.088c1.356 0 2.456-.998 2.456-2.23V2.747c0-1.231-1.1-2.23-2.456-2.23z" fill="#fff" stroke="#F3F3F3" stroke-width="1.034"/><path fill-rule="evenodd" clip-rule="evenodd" d="M22.999 13.922h-.679c-.067-.004-.12-.054-.12-.116v-3.24c.006-.061.063-.107.13-.106h.632a.127.127 0 01.12.09v.496h.014c.19-.443.458-.654.928-.654.305 0 .603.102.796.382.177.259.177.695.177 1.008v2.038a.127.127 0 01-.13.102h-.685a.124.124 0 01-.121-.102v-1.844c.004-.346.008-.787-.427-.787a.447.447 0 00-.394.26c-.095.197-.108.395-.108.614v1.743c-.002.065-.062.117-.133.116zm-2.877-3.526c1.012 0 1.559.805 1.559 1.827 0 .988-.603 1.771-1.559 1.771-.991 0-1.532-.804-1.532-1.805 0-1.002.547-1.793 1.532-1.793zm.007.662c-.502 0-.534.633-.534 1.028v.014c0 .4 0 1.226.527 1.226.534 0 .554-.681.554-1.097 0-.272-.013-.6-.102-.858-.076-.223-.229-.313-.445-.313zm-12.596 2.87h-.68a.124.124 0 01-.121-.106v-3.24c.002-.065.06-.116.13-.115h.635c.065.003.117.051.12.111v.423h.013c.166-.41.477-.6.897-.6.42 0 .693.19.884.6a.992.992 0 01.788-.593c.36-.052.72.08.945.345.185.233.179.558.174.863l-.002.152v2.044a.115.115 0 01-.04.084.135.135 0 01-.092.032h-.68c-.068-.003-.12-.054-.121-.116v-1.814c.003-.161.006-.404-.02-.51-.05-.217-.203-.278-.4-.278a.452.452 0 00-.407.265c-.065.152-.064.398-.064.58v1.757a.115.115 0 01-.04.083.134.134 0 01-.09.034h-.683c-.067-.004-.12-.055-.121-.117v-1.717l.001-.11c.006-.35.012-.783-.423-.783-.471 0-.47.493-.47.867v1.743a.115.115 0 01-.04.084.136.136 0 01-.093.032zm-2.026.04a.15.15 0 00.16-.015l.006.001c.136-.112.383-.31.522-.419.053-.042.044-.111 0-.167l-.04-.05c-.111-.139-.217-.27-.217-.535v-1.077c.002-.38.004-.727-.302-.992-.26-.232-.693-.314-1.025-.314-.648 0-1.372.224-1.523.966a.105.105 0 00.02.086.124.124 0 00.081.046l.655.066a.138.138 0 00.12-.116c.057-.255.289-.379.549-.379.14 0 .299.048.382.164.085.117.084.271.083.41v.13l-.194.019c-.36.034-.776.073-1.087.2-.422.17-.724.518-.724 1.03 0 .656.446.984 1.02.984.484 0 .749-.105 1.123-.459l.05.069c.09.123.148.203.34.352zm-.526-1.523v-.166c-.493 0-1.013.098-1.013.635 0 .274.152.458.413.458.192 0 .364-.11.472-.287.128-.21.128-.407.128-.64zm10.143.92l-.04-.05c-.112-.138-.218-.27-.218-.534v-1.083c.003-.377.005-.722-.301-.986-.261-.232-.694-.314-1.025-.314-.649 0-1.372.223-1.524.966a.1.1 0 00.02.086c.02.025.049.042.082.046l.66.066a.138.138 0 00.12-.116c.058-.255.288-.379.548-.379.14 0 .302.048.383.164.085.117.084.271.083.41v.128l-.19.018c-.36.034-.779.073-1.091.2-.427.171-.727.519-.727 1.032 0 .655.447.983 1.02.983.482 0 .749-.106 1.123-.459l.048.067c.091.125.149.204.343.354a.15.15 0 00.16-.015c.136-.111.383-.311.523-.419.058-.038.049-.106.003-.164zm-1.339-.283a.558.558 0 01-.472.287c-.26 0-.413-.184-.413-.458 0-.537.52-.635 1.013-.635v.162c0 .235 0 .433-.128.644zm1.915-2.05v-.46a.107.107 0 01.036-.085.126.126 0 01.092-.033h2.239a.13.13 0 01.091.033.111.111 0 01.038.084v.397c0 .067-.06.154-.169.291l-1.16 1.534c.43-.01.886.05 1.277.254a.21.21 0 01.121.18v.496c0 .069-.08.147-.165.107a2.763 2.763 0 00-2.366.004c-.078.038-.16-.04-.16-.108v-.472a.527.527 0 01.084-.317l1.344-1.788H15.83a.13.13 0 01-.092-.032.111.111 0 01-.038-.084zm11.835-.166c.171-.14.367-.252.578-.33.2-.074.413-.112.629-.112a1.57 1.57 0 01.621.116c.185.078.346.196.471.344.137.164.238.35.297.55.072.236.107.48.104.726.003.25-.034.5-.111.74-.064.204-.17.395-.31.563a1.39 1.39 0 01-.487.36 1.536 1.536 0 01-.635.124 1.666 1.666 0 01-1.106-.391v1.55a.111.111 0 01-.036.1.133.133 0 01-.107.033h-.422a.133.133 0 01-.108-.033.111.111 0 01-.035-.1v-4.451a.112.112 0 01.036-.1.133.133 0 01.107-.033h.314a.159.159 0 01.113.034c.03.025.05.06.052.099l.035.211zm1.007.086c-.346.003-.682.11-.957.305V13.1c.305.212.619.318.943.317.657 0 .985-.41.985-1.228 0-.82-.324-1.231-.97-1.237zm2.585.163l.053-.017c.34-.096.693-.147 1.048-.15.286 0 .486.049.6.146.115.096.172.264.172.502v.435a4.153 4.153 0 00-.9-.112c-.419 0-.752.095-1 .288a.926.926 0 00-.371.77c0 .3.101.54.301.718.2.179.472.268.814.268.212 0 .422-.039.618-.112.208-.075.4-.182.568-.317l.036.218a.13.13 0 00.05.095.15.15 0 00.107.031h.308a.133.133 0 00.107-.033.112.112 0 00.035-.1v-2.259c0-.362-.107-.629-.322-.8-.214-.172-.547-.258-1-.258-.224 0-.45.019-.67.056a2.741 2.741 0 00-.565.146.272.272 0 00-.113.07.21.21 0 00-.03.129v.177c0 .08.033.12.094.12a.251.251 0 00.06-.01zm1.382 2.267a1.566 1.566 0 01-.493.086c-.185 0-.328-.045-.428-.135-.1-.09-.15-.22-.15-.388-.001-.383.268-.575.807-.575.127 0 .255.008.382.023.126.015.25.036.375.063v.675c-.15.106-.316.191-.493.251zm3.042 1.737c.168-.132.317-.35.447-.655l1.571-3.704a.482.482 0 00.05-.16c0-.052-.033-.078-.1-.078h-.4a.275.275 0 00-.157.033.348.348 0 00-.085.145l-.965 2.567-1-2.567a.348.348 0 00-.086-.145.274.274 0 00-.157-.033h-.429c-.066 0-.1.026-.1.079a.5.5 0 00.05.159l1.376 3.15-.135.336c-.081.212-.172.357-.272.436a.664.664 0 01-.422.12 1.076 1.076 0 01-.192-.014.702.702 0 00-.108-.013c-.071 0-.107.042-.107.126v.172a.21.21 0 00.036.135c.03.032.07.054.114.063.133.033.27.048.407.046.274 0 .495-.065.664-.198z" fill="#232F3E"/><path fill-rule="evenodd" clip-rule="evenodd" d="M16.82 15.988c.155-.357.5-1.157.336-1.35h.002c-.164-.195-1.08-.093-1.493-.047-.126.014-.145-.087-.032-.16.732-.477 1.931-.34 2.07-.18.14.161-.038 1.275-.723 1.807-.106.082-.207.038-.16-.07zm-4.926.551c1.595 0 3.451-.466 4.73-1.34.212-.147.03-.364-.185-.279-1.396.546-2.895.83-4.41.838-2.102 0-4.136-.534-5.781-1.42-.144-.078-.252.059-.13.159 1.583 1.324 3.643 2.052 5.776 2.042z" fill="#F90"/></svg>
